X: 22433
T: Lads In The Loo, The
R: slide
M: 12/8
K: Dmajor
|:A|F3 ABc d2 c B2 A|F2 A- ABc d2 F E3|
FAA AA/B/c ded cBA|B2 e e>dc B2 c d2:|
e|f3 def e2 d B2 A|f2 d- def e2 d g3|
fdd dd/e/f efe cBA|B2 e e>dc B2 c d2 e|
f>gf f>gf e2 d B2 g|f>gf aa/g/f edB g3|
.fz.d z.fz ef/e/d cBA|B2 e e>dc B2 c d2||

